src/topics/icons/bosun.svg

<svg height="256" preserveAspectRatio="xMidYMid" viewBox="0 0 256 256" width="256" xmlns="http://www.w3.org/2000/svg" xmlns:xlink="http://www.w3.org/1999/xlink"><defs><path id="a" d="m256 9.14285714c0-5.04941714-4.09344-9.14285714-9.142857-9.14285714h-237.71428586c-5.04941714 0-9.14285714 4.09344-9.14285714 9.14285714v237.71428586c0 5.049417 4.09344 9.142857 9.14285714 9.142857h237.71428586c5.049417 0 9.142857-4.09344 9.142857-9.142857z"/><mask id="b" fill="#fff"><use fill="#fff" xlink:href="#a"/></mask></defs><use fill="#1f5296" xlink:href="#a"/><path d="m9.14285714 0h237.71428586c5.049417 0 9.142857 4.09344 9.142857 9.14285714v109.71428586c0 5.049417-4.09344 9.142857-9.142857 9.142857h-237.71428586c-5.04941714 0-9.14285714-4.09344-9.14285714-9.142857v-109.71428586c0-5.04941714 4.09344-9.14285714 9.14285714-9.14285714" fill="#4ba2d9" mask="url(#b)"/><path d="m9.14285714 128h237.71428586c5.049417 0 9.142857 4.09344 9.142857 9.142857v109.714286c0 5.049417-4.09344 9.142857-9.142857 9.142857h-237.71428586c-5.04941714 0-9.14285714-4.09344-9.14285714-9.142857v-109.714286c0-5.049417 4.09344-9.142857 9.14285714-9.142857" fill="#1f5296" mask="url(#b)"/><path d="m54.8571429 54.8571429 73.1428571 73.1428571-73.1428571 73.142857-73.1428572-73.142857z" fill="#356eb6" mask="url(#b)"/><path d="m54.8571429 205.021623-77.0216229-77.021623 77.0216229-77.0216229 77.0216231 77.0216229zm-69.2640915-77.021623 69.2640915 69.264091 69.2640911-69.264091-69.2640911-69.2640914z" fill="#fff" mask="url(#b)"/><path d="m201.142857 54.8571429 73.142857 73.1428571-73.142857 73.142857-73.142857-73.142857z" fill="#356eb6" mask="url(#b)"/><g fill="#fff"><path d="m201.142857 205.021623-77.021623-77.021623 77.021623-77.0216229 77.021623 77.0216229zm-69.264091-77.021623 69.264091 69.264091 69.264092-69.264091-69.264092-69.2640914z" mask="url(#b)"/><path d="m53.9428571-19.2h2.1942858v294.4h-2.1942858z" mask="url(#b)"/><path d="m127.085714-19.2h2.194286v294.4h-2.194286z" mask="url(#b)"/><path d="m200.228571-19.2h2.194286v294.4h-2.194286z" mask="url(#b)"/></g><path d="m54.8571429 32c12.6237257 0 22.8571428 10.2334171 22.8571428 22.8571429 0 12.6237257-10.2334171 22.8571428-22.8571428 22.8571428-12.6237258 0-22.8571429-10.2334171-22.8571429-22.8571428 0-12.6237258 10.2334171-22.8571429 22.8571429-22.8571429" fill="#1f5296" mask="url(#b)"/><path d="m54.8571429 82.2857143c-15.1241143 0-27.4285715-12.3044572-27.4285715-27.4285714 0-15.1241143 12.3044572-27.4285715 27.4285715-27.4285715 15.1241142 0 27.4285714 12.3044572 27.4285714 27.4285715 0 15.1241142-12.3044572 27.4285714-27.4285714 27.4285714zm0-45.7142857c-10.0827429 0-18.2857143 8.2029714-18.2857143 18.2857143 0 10.0827428 8.2029714 18.2857142 18.2857143 18.2857142 10.0827428 0 18.2857142-8.2029714 18.2857142-18.2857142 0-10.0827429-8.2029714-18.2857143-18.2857142-18.2857143z" fill="#fff" mask="url(#b)"/><path d="m201.142857 32c12.623726 0 22.857143 10.2334171 22.857143 22.8571429 0 12.6237257-10.233417 22.8571428-22.857143 22.8571428s-22.857143-10.2334171-22.857143-22.8571428c0-12.6237258 10.233417-22.8571429 22.857143-22.8571429" fill="#1f5296" mask="url(#b)"/><path d="m201.142857 82.2857143c-15.124114 0-27.428571-12.3044572-27.428571-27.4285714 0-15.1241143 12.304457-27.4285715 27.428571-27.4285715 15.12448 0 27.428572 12.3044572 27.428572 27.4285715 0 15.1241142-12.304092 27.4285714-27.428572 27.4285714zm0-45.7142857c-10.082743 0-18.285714 8.2029714-18.285714 18.2857143 0 10.0827428 8.202971 18.2857142 18.285714 18.2857142s18.285714-8.2029714 18.285714-18.2857142c0-10.0827429-8.202971-18.2857143-18.285714-18.2857143z" fill="#fff" mask="url(#b)"/><path d="m54.8571429 178.285714c12.6237257 0 22.8571428 10.233417 22.8571428 22.857143s-10.2334171 22.857143-22.8571428 22.857143c-12.6237258 0-22.8571429-10.233417-22.8571429-22.857143s10.2334171-22.857143 22.8571429-22.857143" fill="#4ba2d9" mask="url(#b)"/><path d="m54.8571429 228.571429c-15.1241143 0-27.4285715-12.304458-27.4285715-27.428572s12.3044572-27.428571 27.4285715-27.428571c15.1241142 0 27.4285714 12.304457 27.4285714 27.428571s-12.3044572 27.428572-27.4285714 27.428572zm0-45.714286c-10.0827429 0-18.2857143 8.202971-18.2857143 18.285714s8.2029714 18.285714 18.2857143 18.285714c10.0827428 0 18.2857142-8.202971 18.2857142-18.285714s-8.2029714-18.285714-18.2857142-18.285714z" fill="#fff" mask="url(#b)"/><path d="m201.142857 178.285714c12.623726 0 22.857143 10.233417 22.857143 22.857143s-10.233417 22.857143-22.857143 22.857143-22.857143-10.233417-22.857143-22.857143 10.233417-22.857143 22.857143-22.857143" fill="#4ba2d9" mask="url(#b)"/><path d="m201.142857 228.571429c-15.124114 0-27.428571-12.304458-27.428571-27.428572s12.304457-27.428571 27.428571-27.428571c15.12448 0 27.428572 12.304457 27.428572 27.428571s-12.304092 27.428572-27.428572 27.428572zm0-45.714286c-10.082743 0-18.285714 8.202971-18.285714 18.285714s8.202971 18.285714 18.285714 18.285714 18.285714-8.202971 18.285714-18.285714-8.202971-18.285714-18.285714-18.285714z" fill="#fff" mask="url(#b)"/></svg>

<?xml version="1.0" encoding="UTF-8" standalone="no"?>
<svg width="256px" height="256px" viewBox="0 0 256 256" version="1.1" xmlns="http://www.w3.org/2000/svg" xmlns:xlink="http://www.w3.org/1999/xlink" preserveAspectRatio="xMidYMid">
    <defs>
        <path id="path-1" d="M256,9.14285714 C256,4.09344 251.90656,0 246.857143,0 L9.14285714,0 C4.09344,0 0,4.09344 0,9.14285714 L0,246.857143 C0,251.90656 4.09344,256 9.14285714,256 L246.857143,256 C251.90656,256 256,251.90656 256,246.857143 L256,9.14285714"></path>
    </defs>
	<g>
		<mask id="mask-2" fill="white">
			<use xlink:href="#path-1"></use>
		</mask>
		<use fill="#1F5296" xlink:href="#path-1"></use>
		<path d="M9.14285714,0 L246.857143,0 C251.90656,0 256,4.09344 256,9.14285714 L256,118.857143 C256,123.90656 251.90656,128 246.857143,128 L9.14285714,128 C4.09344,128 0,123.90656 0,118.857143 L0,9.14285714 C0,4.09344 4.09344,0 9.14285714,0" fill="#4BA2D9" mask="url(#mask-2)"></path>
		<path d="M9.14285714,128 L246.857143,128 C251.90656,128 256,132.09344 256,137.142857 L256,246.857143 C256,251.90656 251.90656,256 246.857143,256 L9.14285714,256 C4.09344,256 0,251.90656 0,246.857143 L0,137.142857 C0,132.09344 4.09344,128 9.14285714,128" fill="#1F5296" mask="url(#mask-2)"></path>
		<path d="M54.8571429,54.8571429 L128,128 L54.8571429,201.142857 L-18.2857143,128 L54.8571429,54.8571429" fill="#356EB6" mask="url(#mask-2)"></path>
		<path d="M54.8571429,205.021623 L-22.16448,128 L54.8571429,50.9783771 L131.878766,128 L54.8571429,205.021623 L54.8571429,205.021623 Z M-14.4069486,128 L54.8571429,197.264091 L124.121234,128 L54.8571429,58.7359086 L-14.4069486,128 L-14.4069486,128 Z" fill="#FFFFFF" mask="url(#mask-2)"></path>
		<path d="M201.142857,54.8571429 L274.285714,128 L201.142857,201.142857 L128,128 L201.142857,54.8571429" fill="#356EB6" mask="url(#mask-2)"></path>
		<path d="M201.142857,205.021623 L124.121234,128 L201.142857,50.9783771 L278.16448,128 L201.142857,205.021623 L201.142857,205.021623 Z M131.878766,128 L201.142857,197.264091 L270.406949,128 L201.142857,58.7359086 L131.878766,128 L131.878766,128 Z" fill="#FFFFFF" mask="url(#mask-2)"></path>
		<path d="M53.9428571,-19.2 L56.1371429,-19.2 L56.1371429,275.2 L53.9428571,275.2 L53.9428571,-19.2 Z" fill="#FFFFFF" mask="url(#mask-2)"></path>
		<path d="M127.085714,-19.2 L129.28,-19.2 L129.28,275.2 L127.085714,275.2 L127.085714,-19.2 Z" fill="#FFFFFF" mask="url(#mask-2)"></path>
		<path d="M200.228571,-19.2 L202.422857,-19.2 L202.422857,275.2 L200.228571,275.2 L200.228571,-19.2 Z" fill="#FFFFFF" mask="url(#mask-2)"></path>
		<path d="M54.8571429,32 C67.4808686,32 77.7142857,42.2334171 77.7142857,54.8571429 C77.7142857,67.4808686 67.4808686,77.7142857 54.8571429,77.7142857 C42.2334171,77.7142857 32,67.4808686 32,54.8571429 C32,42.2334171 42.2334171,32 54.8571429,32" fill="#1F5296" mask="url(#mask-2)"></path>
		<path d="M54.8571429,82.2857143 C39.7330286,82.2857143 27.4285714,69.9812571 27.4285714,54.8571429 C27.4285714,39.7330286 39.7330286,27.4285714 54.8571429,27.4285714 C69.9812571,27.4285714 82.2857143,39.7330286 82.2857143,54.8571429 C82.2857143,69.9812571 69.9812571,82.2857143 54.8571429,82.2857143 L54.8571429,82.2857143 Z M54.8571429,36.5714286 C44.7744,36.5714286 36.5714286,44.7744 36.5714286,54.8571429 C36.5714286,64.9398857 44.7744,73.1428571 54.8571429,73.1428571 C64.9398857,73.1428571 73.1428571,64.9398857 73.1428571,54.8571429 C73.1428571,44.7744 64.9398857,36.5714286 54.8571429,36.5714286 L54.8571429,36.5714286 Z" fill="#FFFFFF" mask="url(#mask-2)"></path>
		<path d="M201.142857,32 C213.766583,32 224,42.2334171 224,54.8571429 C224,67.4808686 213.766583,77.7142857 201.142857,77.7142857 C188.519131,77.7142857 178.285714,67.4808686 178.285714,54.8571429 C178.285714,42.2334171 188.519131,32 201.142857,32" fill="#1F5296" mask="url(#mask-2)"></path>
		<path d="M201.142857,82.2857143 C186.018743,82.2857143 173.714286,69.9812571 173.714286,54.8571429 C173.714286,39.7330286 186.018743,27.4285714 201.142857,27.4285714 C216.267337,27.4285714 228.571429,39.7330286 228.571429,54.8571429 C228.571429,69.9812571 216.267337,82.2857143 201.142857,82.2857143 L201.142857,82.2857143 Z M201.142857,36.5714286 C191.060114,36.5714286 182.857143,44.7744 182.857143,54.8571429 C182.857143,64.9398857 191.060114,73.1428571 201.142857,73.1428571 C211.2256,73.1428571 219.428571,64.9398857 219.428571,54.8571429 C219.428571,44.7744 211.2256,36.5714286 201.142857,36.5714286 L201.142857,36.5714286 Z" fill="#FFFFFF" mask="url(#mask-2)"></path>
		<path d="M54.8571429,178.285714 C67.4808686,178.285714 77.7142857,188.519131 77.7142857,201.142857 C77.7142857,213.766583 67.4808686,224 54.8571429,224 C42.2334171,224 32,213.766583 32,201.142857 C32,188.519131 42.2334171,178.285714 54.8571429,178.285714" fill="#4BA2D9" mask="url(#mask-2)"></path>
		<path d="M54.8571429,228.571429 C39.7330286,228.571429 27.4285714,216.266971 27.4285714,201.142857 C27.4285714,186.018743 39.7330286,173.714286 54.8571429,173.714286 C69.9812571,173.714286 82.2857143,186.018743 82.2857143,201.142857 C82.2857143,216.266971 69.9812571,228.571429 54.8571429,228.571429 L54.8571429,228.571429 Z M54.8571429,182.857143 C44.7744,182.857143 36.5714286,191.060114 36.5714286,201.142857 C36.5714286,211.2256 44.7744,219.428571 54.8571429,219.428571 C64.9398857,219.428571 73.1428571,211.2256 73.1428571,201.142857 C73.1428571,191.060114 64.9398857,182.857143 54.8571429,182.857143 L54.8571429,182.857143 Z" fill="#FFFFFF" mask="url(#mask-2)"></path>
		<path d="M201.142857,178.285714 C213.766583,178.285714 224,188.519131 224,201.142857 C224,213.766583 213.766583,224 201.142857,224 C188.519131,224 178.285714,213.766583 178.285714,201.142857 C178.285714,188.519131 188.519131,178.285714 201.142857,178.285714" fill="#4BA2D9" mask="url(#mask-2)"></path>
		<path d="M201.142857,228.571429 C186.018743,228.571429 173.714286,216.266971 173.714286,201.142857 C173.714286,186.018743 186.018743,173.714286 201.142857,173.714286 C216.267337,173.714286 228.571429,186.018743 228.571429,201.142857 C228.571429,216.266971 216.267337,228.571429 201.142857,228.571429 L201.142857,228.571429 Z M201.142857,182.857143 C191.060114,182.857143 182.857143,191.060114 182.857143,201.142857 C182.857143,211.2256 191.060114,219.428571 201.142857,219.428571 C211.2256,219.428571 219.428571,211.2256 219.428571,201.142857 C219.428571,191.060114 211.2256,182.857143 201.142857,182.857143 L201.142857,182.857143 Z" fill="#FFFFFF" mask="url(#mask-2)"></path>
	</g>
</svg>
